X: 29
T: Będę Cię wielbił, mój Panie,
C: Mikołaj Gomółka
%%abc-version 2.0
%%abcx-abcm2ps-target-version 5.9.1 (29 Sep 2008)
%%abc-creator hum2abc beta
%%abcx-conversion-date 2021/10/04 07:59:10
%%abc-edited-by Anna Matuszewska
%%abcx-initial-encoding-date 2020-02-06
%%humdrum-veritas 3954649620
%%humdrum-veritas-data 1442743313
%%linebreak <none>
%%barnumbers 0
L: 1/4
M: C|
N: Derived from pl-wn--sd-xvi-qu-273--030_gomolka-mikolaj--bede-cie-wielbil-moj-panie.krn
%%staves [1 2 3 4]
V: 1 clef=treble
V: 2
V: 3 clef=alto
V: 4
K: C
[V:1] G4G2c2 [I:setbarnb 3]| 
[V:2] D4E3F | 
[V:3] B,4B,2C2 | 
[V:4] G,4E,2C,2 [|] 
[V:1] B2>c2d2e2 | 
[V:2] G2G2G2G2 | 
[V:3] D4B,2C4 | 
[V:4] G,4G,2E,2 [|] 
[V:1] c4B2G2 | 
[V:2] E2^F2G2CD | 
[V:3] C2D2E2 | 
[V:4] A,4G,2C2 [|] 
[V:1] G2G2c3B | 
[V:2] EFG2E4 | 
[V:3] E2D2C4 | 
[V:4] C2B,2A,3G, [|] 
[V:1] A2G4F2 | 
[V:2] F2D2D3C | 
[V:3] C2B,2A,4 | 
[V:4] F,2G,2D,4 [|] 
[V:1] G4B4 | 
[V:2] B,4G4 | 
[V:3] G,4D4 | 
[V:4] G,4G,4 [|] 
[V:1] B2c2d4 | 
[V:2] G2G4F2 | 
[V:3] D2E2F4 | 
[V:4] G,2F,E,D,C,D,2 [|] 
[V:1] G2A4GF | 
[V:2] G2FEF2ED | 
[V:3] E2DCD4 | 
[V:4] C,2C4B,2 [|] 
[V:1] A2G2>A2B2 | 
[V:2] E2CDEFG2 | 
[V:3] C2E2E2D2 | 
[V:4] C2C2C2B,2 [|] 
[V:1] c2>B2A2G2 | 
[V:2] E2E2F2D2 | 
[V:3] C4C2B,4 | 
[V:4] A,2>G,2F,2G,4 [|] 
[V:1] G2^FEFG2^F | 
[V:2] E4D3C | 
[V:3] CB,A,G,A,2 | 
[V:4] B,,2C,4 [|] 
[V:1] !fermata!G8 |]  
[V:2] B,8 |]  
[V:3] G,8 |]  
[V:4] G,8 |]  


